X: 23510
T: Liam O'Flynn's
R: reel
M: 4/4
K: Gmajor
(3d/e/f/|g2dc BGG2|FGAB cdef|g2dc BGG2|AdcA G3:|
|:dff/e/f dgg/f/g|defd edcA|1 dff/e/f dgg/f/g|fdcA ~G4:|
[2 defg ~a3g|fdcA ~G4||

